packages/tokens/icons/crm/size24Px.svg

<svg viewBox="0 0 24 24" fill="none" xmlns="http://www.w3.org/2000/svg" width="1em" height="1em"><circle cx="13.5" cy="11.5" r="2" stroke="currentColor"/><path d="M10.5 18V17.5C10.5 16.3954 11.3954 15.5 12.5 15.5H14.5C15.6046 15.5 16.5 16.3954 16.5 17.5V18" stroke="currentColor" stroke-linecap="round"/><rect x="2.5" y="4.5" width="19" height="15" rx="1.5" stroke="currentColor"/><line x1="2.10522" y1="7.5" x2="21.2631" y2="7.5" stroke="currentColor"/><circle cx="4.5" cy="5.97363" r="0.25" stroke="currentColor" stroke-width="0.5"/><circle cx="6.5" cy="5.97363" r="0.25" stroke="currentColor" stroke-width="0.5"/><circle cx="8.5" cy="5.97363" r="0.25" stroke="currentColor" stroke-width="0.5"/><line x1="7.5" y1="8" x2="7.5" y2="19" stroke="currentColor"/><path d="M2.5 11.5H5.5M2.5 13.5H5.5M2.5 15.5H5.5" stroke="currentColor" stroke-linecap="round"/></svg>

<svg xmlns="http://www.w3.org/2000/svg" fill="none" viewBox="0 0 24 24" width="1em" height="1em"><circle cx="13.5" cy="11.5" r="2" stroke="currentColor"/><path stroke="currentColor" stroke-linecap="round" d="M10.5 18v-.5a2 2 0 0 1 2-2h2a2 2 0 0 1 2 2v.5"/><rect width="19" height="15" x="2.5" y="4.5" stroke="currentColor" rx="1.5"/><path stroke="currentColor" d="M2.105 7.5h19.158"/><circle cx="4.5" cy="5.974" r=".25" stroke="currentColor" stroke-width=".5"/><circle cx="6.5" cy="5.974" r=".25" stroke="currentColor" stroke-width=".5"/><circle cx="8.5" cy="5.974" r=".25" stroke="currentColor" stroke-width=".5"/><path stroke="currentColor" d="M7.5 8v11"/><path stroke="currentColor" stroke-linecap="round" d="M2.5 11.5h3m-3 2h3m-3 2h3"/></svg>
